X: 4285
M: C
L: 1/8
K: D
|:\
[1,3 e2e2 edcB | A^GAB A=GFE :|\
[2,4 cecA BdB^G | A2c2 A2z2 |:\
d2d2 dedc |
e2e2 efed | cdcB A2(Bc) |\
d2d2 dfed | B2e2 g2(fe) |\
fafd egec | d2f2 d2z2 :|


